SVG_Azure_Grouped/Compute/Quantum Workspace.svg

<?xml version="1.0" encoding="UTF-8" standalone="no"?>
<!-- Generated by Microsoft Visio, SVG Export Quantum Workspace.svg Page-1 -->

<svg
   xmlns:dc="http://purl.org/dc/elements/1.1/"
   xmlns:cc="http://creativecommons.org/ns#"
   xmlns:rdf="http://www.w3.org/1999/02/22-rdf-syntax-ns#"
   xmlns:svg="http://www.w3.org/2000/svg"
   xmlns="http://www.w3.org/2000/svg"
   xmlns:sodipodi="http://sodipodi.sourceforge.net/DTD/sodipodi-0.dtd"
   xmlns:inkscape="http://www.inkscape.org/namespaces/inkscape"
   width="0.62985766in"
   height="0.78735679in"
   viewBox="0 0 45.349495 56.69"
   xml:space="preserve"
   class="st3"
   version="1.1"
   id="svg24"
   sodipodi:docname="Quantum Workspace.svg"
   style="font-size:12px;overflow:visible;color-interpolation-filters:sRGB;fill:none;fill-rule:evenodd;stroke-linecap:square;stroke-miterlimit:3"
   inkscape:version="0.92.5 (2060ec1f9f, 2020-04-08)"><metadata
   id="metadata30"><rdf:RDF><cc:Work
       rdf:about=""><dc:format>image/svg+xml</dc:format><dc:type
         rdf:resource="http://purl.org/dc/dcmitype/StillImage" /></cc:Work></rdf:RDF></metadata><defs
   id="defs28" /><sodipodi:namedview
   pagecolor="#ffffff"
   bordercolor="#666666"
   borderopacity="1"
   objecttolerance="10"
   gridtolerance="10"
   guidetolerance="10"
   inkscape:pageopacity="0"
   inkscape:pageshadow="2"
   inkscape:window-width="640"
   inkscape:window-height="480"
   id="namedview26"
   showgrid="false"
   inkscape:zoom="1.4193119"
   inkscape:cx="30.235832"
   inkscape:cy="37.786193"
   inkscape:window-x="0"
   inkscape:window-y="0"
   inkscape:window-maximized="0"
   inkscape:current-layer="svg24" />
	<style
   type="text/css"
   id="style2">
	<![CDATA[
		.st1 {fill:#0078d4;stroke:none;stroke-linecap:butt;stroke-width:34}
		.st2 {fill:#ffffff;stroke:none;stroke-linecap:butt;stroke-width:34}
		.st3 {fill:none;fill-rule:evenodd;font-size:12px;overflow:visible;stroke-linecap:square;stroke-miterlimit:3}
	]]>
	</style>

	<g
   id="g22"
   transform="translate(-34.000633,-34.0043)">
		<title
   id="title4">Page-1</title>
		<g
   id="group11202-1"
   transform="translate(34,-34.0157)">
			<title
   id="title6">Quantum Workspace.11202</title>
			<g
   id="group11203-2">
				<title
   id="title8">Sheet.11203</title>
				<g
   id="shape11204-3"
   transform="translate(0.308533)">
					<title
   id="title10">Sheet.11204</title>
					<path
   d="m 39.18,124.71 c -0.3,0 -0.3,0 0,0 l -11.1,-6.62 -5.56,3.15 L 0,108.02 V 81.24 L 22.21,68.02 44.74,81.24 v 27.09 l -5.25,3.15 5.25,3.15 v 7.24 z"
   class="st1"
   id="path12"
   inkscape:connector-curvature="0"
   style="fill:#0078d4;stroke:none;stroke-width:34;stroke-linecap:butt" />
				</g>
				<g
   id="shape11205-5">
					<title
   id="title15">Sheet.11205</title>
					<path
   d="M 45.35,108.02 V 81.24 L 22.52,68.02 H 22.21 L 0,81.24 v 27.09 l 22.52,13.23 5.56,-3.15 5.55,3.15 5.55,3.15 5.56,-3.15 v -7.25 l -5.25,-3.14 5.86,-3.15 c -0.3,0 0,0 0,0 z M 33.94,114 v -5.67 l 4.94,2.84 z M 22.21,94.16 17.59,91.32 22.21,88.49 Z m 0.62,-5.67 4.94,2.83 -4.94,2.84 z m -0.92,6.3 -4.63,2.83 v -5.67 z m 0.3,0.31 v 5.67 l -4.62,-2.83 z m 0.62,0 4.94,2.84 -4.94,2.83 z m 0.31,-0.31 4.94,-2.84 v 5.67 z m 0,-6.62 4.94,-2.83 v 5.67 z m -5.86,2.84 v -5.67 l 4.93,2.83 z m -0.62,6.61 -4.94,-2.83 4.94,-2.84 z m 5.25,3.78 -4.94,2.84 v -5.67 z m 5.86,-2.83 v 5.67 l -4.94,-2.84 z m 0.62,-6.62 4.93,2.84 -4.93,2.83 z m 0.3,-0.63 4.94,-2.83 v 5.67 z m -0.3,-0.31 v -5.67 l 4.93,2.83 z m -5.56,-3.47 v -5.67 l 4.94,2.84 z m -0.62,0 -4.62,-2.83 4.62,-2.84 z m -5.55,3.47 -4.94,-2.84 4.94,-2.83 z m -0.31,0.31 -4.63,2.84 v -5.67 z m 0,6.62 -4.93,2.83 V 95.1 Z m 0.31,0.63 v 5.67 l -4.94,-2.84 z m 5.55,3.15 v 5.67 l -4.93,-2.84 z m 0.62,0 4.94,2.83 -4.94,2.84 z m 5.56,-3.15 4.93,2.83 -4.93,2.84 z m 0.3,-0.63 4.94,-2.84 v 5.67 z m 5.25,-9.45 4.94,2.83 -4.94,2.84 z m -5.25,-3.78 4.94,-2.84 v 5.67 z m -5.55,-3.15 4.94,-2.84 v 5.67 z m -5.86,2.83 v -5.67 l 4.93,2.84 z m -5.56,3.15 v -5.67 l 4.94,2.84 z m -0.61,6.62 -4.94,-2.84 4.94,-2.83 z m 0,6.61 -4.94,-2.83 4.94,-2.84 z m 5.24,3.78 -4.93,2.84 v -5.67 z m 5.56,3.47 -4.94,2.83 v -5.67 z m 5.86,-2.84 v 5.67 l -4.94,-2.83 z m 5.86,-3.46 v 5.67 l -4.94,-2.84 z m 0.31,-6.62 4.94,2.84 -4.94,2.83 z m 0.31,-0.31 4.93,-2.84 v 5.67 z m 0,-6.62 4.93,-2.83 v 5.67 z m -0.31,-0.63 v -5.67 l 4.94,2.84 z m -5.55,-3.15 v -5.67 l 4.93,2.84 z m -5.56,-3.46 v -5.67 l 4.94,2.83 z m -0.62,0 -4.62,-2.84 4.62,-2.83 z m -5.55,3.46 -4.94,-2.83 4.94,-2.84 z m -5.55,3.15 -4.94,-2.83 4.94,-2.84 z m -0.31,0.63 -4.94,2.84 v -5.67 z m 0,6.62 -4.94,2.83 v -5.67 z m 0,6.61 -4.94,2.84 v -5.67 z m 0.31,0.32 v 5.67 l -4.94,-2.84 z m 5.55,3.46 v 5.67 l -4.94,-2.83 z m 5.55,3.15 V 114 l -4.93,-2.83 z m 0.62,0 4.94,2.84 -4.94,2.83 z m 5.56,-3.15 4.93,2.84 -4.93,2.83 z m 5.55,-3.46 4.94,2.83 -4.94,2.84 z m 0.31,-0.32 4.93,-2.83 v 5.67 z m 5.24,-9.45 4.94,2.84 -4.94,2.83 z m 0,-6.61 4.94,2.83 -4.94,2.84 z m -5.24,-3.78 4.93,-2.84 v 5.67 z m -5.56,-3.47 4.94,-2.83 v 5.67 z m -5.55,-3.15 4.94,-2.83 v 5.67 z m -5.86,2.84 v -5.67 l 4.93,2.83 z m -5.56,3.15 v -5.67 l 4.94,2.83 z m -5.86,3.46 v -5.67 l 4.94,2.84 z M 5.55,91.01 0.62,88.17 5.55,85.34 Z m 0,6.61 -4.93,-2.83 4.93,-2.84 z m 0,6.62 -4.93,-2.84 4.93,-2.83 z m 5.25,3.78 -4.94,2.83 v -5.67 z m 5.55,3.15 -4.93,2.83 v -5.67 z m 5.56,3.46 -4.94,2.83 v -5.66 z m 5.86,-2.83 v 5.66 l -4.94,-2.83 z m 5.86,-3.47 V 114 l -4.94,-2.83 z m 5.55,3.47 v 5.66 l -4.93,-2.83 z m -4.93,-3.78 4.93,-2.84 v 5.67 z m 5.24,-9.45 4.94,2.83 -4.94,2.84 z m 0.31,-0.63 4.94,-2.84 v 5.67 z m 0,-6.62 4.94,-2.83 v 5.67 z m 0,-6.61 4.94,-2.84 v 5.67 z m -0.31,-0.32 v -5.67 l 4.94,2.84 z m -5.55,-3.46 v -5.67 l 4.94,2.83 z m -5.55,-3.15 v -5.67 l 4.93,2.83 z m -5.56,-3.47 v -5.66 l 4.94,2.83 z m -0.62,0 -4.62,-2.83 4.62,-2.83 z m -5.55,3.47 -4.94,-2.84 4.94,-2.83 z m -5.55,3.15 -4.94,-2.84 4.94,-2.83 z M 5.55,84.39 0.62,81.56 5.55,78.72 Z m -0.3,0.32 -4.94,2.83 v -5.67 z m 0,6.61 -4.94,2.84 v -5.67 z m 0,6.62 -4.94,2.83 V 95.1 Z m 0,6.61 -4.94,2.84 v -5.67 z m 0.3,0.63 v 5.67 l -4.93,-2.83 z m 5.56,3.15 V 114 l -4.94,-2.83 z m 5.55,3.47 v 5.66 l -4.94,-2.83 z m 5.55,3.14 v 5.67 l -4.93,-2.83 z m 0.62,0 4.94,2.84 -4.94,2.83 z m 5.56,-3.14 4.93,2.83 -4.93,2.83 z m 10.49,5.98 -4.94,2.83 v -5.67 z m 0.3,0.63 v 5.67 l -4.93,-2.84 z m 0.31,0 4.94,2.83 -4.94,2.84 z m 0.31,-0.63 4.94,-2.84 v 5.67 z m -0.31,-0.32 v -5.66 l 4.94,2.83 z m 0,-12.28 4.94,2.84 -4.94,2.83 z m 0.31,-0.63 4.94,-2.83 v 5.67 z m -6.17,10.39 v 5.67 l -4.94,-2.83 z"
   class="st2"
   id="path17"
   inkscape:connector-curvature="0"
   style="fill:#ffffff;stroke:none;stroke-width:34;stroke-linecap:butt" />
				</g>
			</g>
		</g>
	</g>
</svg>

<?xml version="1.0" encoding="UTF-8" standalone="no"?>
<!DOCTYPE svg PUBLIC "-//W3C//DTD SVG 1.1//EN" "http://www.w3.org/Graphics/SVG/1.1/DTD/svg11.dtd">
<!-- Generated by Microsoft Visio, SVG Export Quantum Workspace.svg Page-1 -->
<svg xmlns="http://www.w3.org/2000/svg" xmlns:xlink="http://www.w3.org/1999/xlink" xmlns:ev="http://www.w3.org/2001/xml-events"
		width="1.57437in" height="1.73206in" viewBox="0 0 113.354 124.709" xml:space="preserve" color-interpolation-filters="sRGB"
		class="st3">
	<style type="text/css">
	<![CDATA[
		.st1 {fill:#0078d4;stroke:none;stroke-linecap:butt;stroke-width:34}
		.st2 {fill:#ffffff;stroke:none;stroke-linecap:butt;stroke-width:34}
		.st3 {fill:none;fill-rule:evenodd;font-size:12px;overflow:visible;stroke-linecap:square;stroke-miterlimit:3}
	]]>
	</style>

	<g>
		<title>Page-1</title>
		<g id="group10964-1" transform="translate(34,-34.0157)">
			<title>Quantum Workspace.10964</title>
			<g id="group10965-2">
				<title>Sheet.10965</title>
				<g id="shape10966-3" transform="translate(0.308533,0)">
					<title>Sheet.10966</title>
					<path d="M39.18 124.71 C38.88 124.71 38.88 124.71 39.18 124.71 L28.08 118.09 L22.52 121.24 L0 108.02 L0 81.24
								 L22.21 68.02 L44.74 81.24 L44.74 108.33 L39.49 111.48 L44.74 114.63 L44.74 121.87 L39.18 124.71
								 Z" class="st1"/>
				</g>
				<g id="shape10967-5">
					<title>Sheet.10967</title>
					<path d="M45.35 108.02 L45.35 81.24 L22.52 68.02 L22.21 68.02 L0 81.24 L0 108.33 L22.52 121.56 L28.08 118.41
								 L33.63 121.56 L39.18 124.71 L44.74 121.56 L44.74 114.31 L39.49 111.17 L45.35 108.02 C45.05 108.02
								 45.35 108.02 45.35 108.02 ZM33.94 114 L33.94 108.33 L38.88 111.17 L33.94 114 ZM22.21 94.16 L17.59
								 91.32 L22.21 88.49 L22.21 94.16 ZM22.83 88.49 L27.77 91.32 L22.83 94.16 L22.83 88.49 ZM21.91 94.79
								 L17.28 97.62 L17.28 91.95 L21.91 94.79 ZM22.21 95.1 L22.21 100.77 L17.59 97.94 L22.21 95.1 ZM22.83
								 95.1 L27.77 97.94 L22.83 100.77 L22.83 95.1 ZM23.14 94.79 L28.08 91.95 L28.08 97.62 L23.14 94.79
								 ZM23.14 88.17 L28.08 85.34 L28.08 91.01 L23.14 88.17 ZM17.28 91.01 L17.28 85.34 L22.21 88.17 L17.28
								 91.01 ZM16.66 97.62 L11.72 94.79 L16.66 91.95 L16.66 97.62 ZM21.91 101.4 L16.97 104.24 L16.97 98.57
								 L21.91 101.4 ZM27.77 98.57 L27.77 104.24 L22.83 101.4 L27.77 98.57 ZM28.39 91.95 L33.32 94.79 L28.39
								 97.62 L28.39 91.95 ZM28.69 91.32 L33.63 88.49 L33.63 94.16 L28.69 91.32 ZM28.39 91.01 L28.39 85.34
								 L33.32 88.17 L28.39 91.01 ZM22.83 87.54 L22.83 81.87 L27.77 84.71 L22.83 87.54 ZM22.21 87.54 L17.59
								 84.71 L22.21 81.87 L22.21 87.54 ZM16.66 91.01 L11.72 88.17 L16.66 85.34 L16.66 91.01 ZM16.35 91.32
								 L11.72 94.16 L11.72 88.49 L16.35 91.32 ZM16.35 97.94 L11.42 100.77 L11.42 95.1 L16.35 97.94 ZM16.66
								 98.57 L16.66 104.24 L11.72 101.4 L16.66 98.57 ZM22.21 101.72 L22.21 107.39 L17.28 104.55 L22.21
								 101.72 ZM22.83 101.72 L27.77 104.55 L22.83 107.39 L22.83 101.72 ZM28.39 98.57 L33.32 101.4 L28.39
								 104.24 L28.39 98.57 ZM28.69 97.94 L33.63 95.1 L33.63 100.77 L28.69 97.94 ZM33.94 88.49 L38.88 91.32
								 L33.94 94.16 L33.94 88.49 ZM28.69 84.71 L33.63 81.87 L33.63 87.54 L28.69 84.71 ZM23.14 81.56 L28.08
								 78.72 L28.08 84.39 L23.14 81.56 ZM17.28 84.39 L17.28 78.72 L22.21 81.56 L17.28 84.39 ZM11.72 87.54
								 L11.72 81.87 L16.66 84.71 L11.72 87.54 ZM11.11 94.16 L6.17 91.32 L11.11 88.49 L11.11 94.16 ZM11.11
								 100.77 L6.17 97.94 L11.11 95.1 L11.11 100.77 ZM16.35 104.55 L11.42 107.39 L11.42 101.72 L16.35 104.55
								 ZM21.91 108.02 L16.97 110.85 L16.97 105.18 L21.91 108.02 ZM27.77 105.18 L27.77 110.85 L22.83 108.02
								 L27.77 105.18 ZM33.63 101.72 L33.63 107.39 L28.69 104.55 L33.63 101.72 ZM33.94 95.1 L38.88 97.94
								 L33.94 100.77 L33.94 95.1 ZM34.25 94.79 L39.18 91.95 L39.18 97.62 L34.25 94.79 ZM34.25 88.17 L39.18
								 85.34 L39.18 91.01 L34.25 88.17 ZM33.94 87.54 L33.94 81.87 L38.88 84.71 L33.94 87.54 ZM28.39 84.39
								 L28.39 78.72 L33.32 81.56 L28.39 84.39 ZM22.83 80.93 L22.83 75.26 L27.77 78.09 L22.83 80.93 ZM22.21
								 80.93 L17.59 78.09 L22.21 75.26 L22.21 80.93 ZM16.66 84.39 L11.72 81.56 L16.66 78.72 L16.66 84.39
								 ZM11.11 87.54 L6.17 84.71 L11.11 81.87 L11.11 87.54 ZM10.8 88.17 L5.86 91.01 L5.86 85.34 L10.8 88.17
								 ZM10.8 94.79 L5.86 97.62 L5.86 91.95 L10.8 94.79 ZM10.8 101.4 L5.86 104.24 L5.86 98.57 L10.8 101.4
								 ZM11.11 101.72 L11.11 107.39 L6.17 104.55 L11.11 101.72 ZM16.66 105.18 L16.66 110.85 L11.72 108.02
								 L16.66 105.18 ZM22.21 108.33 L22.21 114 L17.28 111.17 L22.21 108.33 ZM22.83 108.33 L27.77 111.17
								 L22.83 114 L22.83 108.33 ZM28.39 105.18 L33.32 108.02 L28.39 110.85 L28.39 105.18 ZM33.94 101.72
								 L38.88 104.55 L33.94 107.39 L33.94 101.72 ZM34.25 101.4 L39.18 98.57 L39.18 104.24 L34.25 101.4
								 ZM39.49 91.95 L44.43 94.79 L39.49 97.62 L39.49 91.95 ZM39.49 85.34 L44.43 88.17 L39.49 91.01 L39.49
								 85.34 ZM34.25 81.56 L39.18 78.72 L39.18 84.39 L34.25 81.56 ZM28.69 78.09 L33.63 75.26 L33.63 80.93
								 L28.69 78.09 ZM23.14 74.94 L28.08 72.11 L28.08 77.78 L23.14 74.94 ZM17.28 77.78 L17.28 72.11 L22.21
								 74.94 L17.28 77.78 ZM11.72 80.93 L11.72 75.26 L16.66 78.09 L11.72 80.93 ZM5.86 84.39 L5.86 78.72
								 L10.8 81.56 L5.86 84.39 ZM5.55 91.01 L0.62 88.17 L5.55 85.34 L5.55 91.01 ZM5.55 97.62 L0.62 94.79
								 L5.55 91.95 L5.55 97.62 ZM5.55 104.24 L0.62 101.4 L5.55 98.57 L5.55 104.24 ZM10.8 108.02 L5.86 110.85
								 L5.86 105.18 L10.8 108.02 ZM16.35 111.17 L11.42 114 L11.42 108.33 L16.35 111.17 ZM21.91 114.63 L16.97
								 117.46 L16.97 111.8 L21.91 114.63 ZM27.77 111.8 L27.77 117.46 L22.83 114.63 L27.77 111.8 ZM33.63
								 108.33 L33.63 114 L28.69 111.17 L33.63 108.33 ZM39.18 111.8 L39.18 117.46 L34.25 114.63 L39.18 111.8
								 ZM34.25 108.02 L39.18 105.18 L39.18 110.85 L34.25 108.02 ZM39.49 98.57 L44.43 101.4 L39.49 104.24
								 L39.49 98.57 ZM39.8 97.94 L44.74 95.1 L44.74 100.77 L39.8 97.94 ZM39.8 91.32 L44.74 88.49 L44.74
								 94.16 L39.8 91.32 ZM39.8 84.71 L44.74 81.87 L44.74 87.54 L39.8 84.71 ZM39.49 84.39 L39.49 78.72
								 L44.43 81.56 L39.49 84.39 ZM33.94 80.93 L33.94 75.26 L38.88 78.09 L33.94 80.93 ZM28.39 77.78 L28.39
								 72.11 L33.32 74.94 L28.39 77.78 ZM22.83 74.31 L22.83 68.65 L27.77 71.48 L22.83 74.31 ZM22.21 74.31
								 L17.59 71.48 L22.21 68.65 L22.21 74.31 ZM16.66 77.78 L11.72 74.94 L16.66 72.11 L16.66 77.78 ZM11.11
								 80.93 L6.17 78.09 L11.11 75.26 L11.11 80.93 ZM5.55 84.39 L0.62 81.56 L5.55 78.72 L5.55 84.39 ZM5.25
								 84.71 L0.31 87.54 L0.31 81.87 L5.25 84.71 ZM5.25 91.32 L0.31 94.16 L0.31 88.49 L5.25 91.32 ZM5.25
								 97.94 L0.31 100.77 L0.31 95.1 L5.25 97.94 ZM5.25 104.55 L0.31 107.39 L0.31 101.72 L5.25 104.55 ZM5.55
								 105.18 L5.55 110.85 L0.62 108.02 L5.55 105.18 ZM11.11 108.33 L11.11 114 L6.17 111.17 L11.11 108.33
								 ZM16.66 111.8 L16.66 117.46 L11.72 114.63 L16.66 111.8 ZM22.21 114.94 L22.21 120.61 L17.28 117.78
								 L22.21 114.94 ZM22.83 114.94 L27.77 117.78 L22.83 120.61 L22.83 114.94 ZM28.39 111.8 L33.32 114.63
								 L28.39 117.46 L28.39 111.8 ZM38.88 117.78 L33.94 120.61 L33.94 114.94 L38.88 117.78 ZM39.18 118.41
								 L39.18 124.08 L34.25 121.24 L39.18 118.41 ZM39.49 118.41 L44.43 121.24 L39.49 124.08 L39.49 118.41
								 ZM39.8 117.78 L44.74 114.94 L44.74 120.61 L39.8 117.78 ZM39.49 117.46 L39.49 111.8 L44.43 114.63
								 L39.49 117.46 ZM39.49 105.18 L44.43 108.02 L39.49 110.85 L39.49 105.18 ZM39.8 104.55 L44.74 101.72
								 L44.74 107.39 L39.8 104.55 ZM33.63 114.94 L33.63 120.61 L28.69 117.78 L33.63 114.94 Z" class="st2"/>
				</g>
			</g>
		</g>
	</g>
</svg>
